icons/contacts-book-upload-line.svg

<svg viewBox="0 0 24 24" fill="currentColor" xmlns="http://www.w3.org/2000/svg"><path d="M19.0049 2C20.1068 2 21 2.89821 21 3.9908V20.0092C21 21.1087 20.1074 22 19.0049 22H3V2H19.0049ZM7 4H5V20H7V4ZM19 4H9V20H19V4ZM14 8L18 12H15V16H13V12H10L14 8ZM24 12V16H22V12H24ZM24 6V10H22V6H24Z"/></svg>

<svg xmlns="http://www.w3.org/2000/svg" viewBox="0 0 24 24">
    <g>
        <path fill="none" d="M0 0h24v24H0z"/>
        <path d="M19.005 2C20.107 2 21 2.898 21 3.99v16.02c0 1.099-.893 1.99-1.995 1.99H3V2h16.005zM7 4H5v16h2V4zm12 0H9v16h10V4zm-5 4l4 4h-3v4h-2v-4h-3l4-4zm10 4v4h-2v-4h2zm0-6v4h-2V6h2z"/>
    </g>
</svg>
